!!!COM: Ernest Reyer
!!!CNT: Francais
!!!TXO: Francais
!!!OTL: Le Goum
!!!LYR: Theophile Gautier
!!!ENC: Jacob Pegg
!!!YOR: Romantic French Song 1830-1870 -David Tunley, ed.,
!!!YOR: New York: Garland Publishing, Inc., 1995,
!!!YOR: Vol. 1 - 'Early Romances'
!!!ODT: 1849/
!!NB: Vocal melody and text only encoded.
!!NB: First instance of melodic material only encoded.
**kern	**silbe
*clef G2	*
*k[b-]	*
*M3/4	*
=16	=16
4r	.
4r	.
{4ff	{Fath-
=17	=17
(8ee	-ma,
8ff	|
6ee	|
6dd	|
6ff)	tout
=18	=18
[2.dd	dort!
=19	=19
2.dd_	|
=20	=20
4dd]}	|}
4r	.
{4ff	{Du
=21	=21
(8ee	treil-
8ff	|
6ee	|
6dd	|
6ff)	-lis
=22	=22
[2.dd	d'or,
=23	=23
2.dd_	|
=24	=24
4dd]}	|}
4r	.
{4ff	{Oh!
=25	=25
(8ee	pen-
8ff	|
6ee	|
6dd	|
6ff)	-che
=26	=26
[2.cc	toi
=27	=27
2.cc]	|
=28	=28
(8cc	vers
8dd	|
8cc	|
8b-	|
8a	|
8g)	|
=29	=29
[2.f	moi!
=30	=30
4f]}	|}
4r	.
4r	.
=31	=31
4r	.
4r	.
4r	.
=32	=32
4r	.
2r	.
=33	=33
4r	.
4r	.
{4ff	{A
=34	=34
(8ee	ton
8ff	|
6ee	|
6dd	|
6ff)	oeil
=35	=35
[2.dd	noir,
=36	=36
2.dd_	|
=37	=37
4dd]}	|}
4r	.
{4ff	{Mon
=38	=38
(8ee	seul
8ff	|
6ee	|
6dd	|
6ff)	mi-
=39	=39
[2.ee	-roir,
=40	=40
2.ee_	|
=41	=41
2ee]}	|}
{4ff#	{Je
=42	=42
(8ee	veux
8ff#	|
6ee	|
6dd	|
6ee)	me
=43	=43
(16ff#q	voir.
16eeq	|
[2.dd)	|
=44	=44
2.dd_	|
=45	=45
4dd]}	|}
4r	.
4r	.
!!piano only mm. 46-63
=64	=64
*k[f#c#g#]	*
*M2/4	*
{4a	{Mais
4b	quel
=65	=65
(12cc#	est
12cc#	donc
12cc#)	ce
4cc#	bruit,
=66	=66
4cc#	bruit
4dd	d'a-
=67	=67
(4b	-lar-
8cc#)}	-mes?}
8r	.
=68	=68
{4a	{Dans
4b	l'ombre
=69	=69
(12cc#	un
12cc#	e/-
12cc#)	-clair
4cc#	luit
=70	=70
4cc#	sur
4dd	des
=71	=71
(4b	ar-
8cc#)}	-mes.}
8r	.
=72	=72
{4ee	{Ah!
(6ff#	par
12dd)	Al-
=73	=73
(16ee	-lah!
16ccn)}	|}
8r	.
4r	.
=74	=74
{4ee	{Ah!
(6ffn	par
12dd)	Al-
=75	=75
(16ee	-lah!
16ccn)}	|}
8r	.
4r	.
=76	=76
{4a	{Pour
4b	mon
=77	=77
(12cc#	coeur
12cc#	ce
12cc#)	fra-
4cc#	-cas
=78	=78
4cc#	a
4dd	des
=79	=79
(4b	char-
8cc#)}	-mes,}
8r	.
=80	=80
{4a	{C'est
4b	le
=81	=81
(12cc#	chant
12cc#	des
12cc#)	sol-
4cc#	-dats
=83	=83
4cc#	vo-
4dd	-lant
=84	=84
8.b	aux
16ee	|
4aa	com-
=85	=85
[4aa	-bats.
8aa]}	|}
8r	.
*-	*-
